groups/phosphorus/phosphonate.svg

<?xml version='1.0' encoding='iso-8859-1'?>
<svg version='1.1' baseProfile='full'
              xmlns='http://www.w3.org/2000/svg'
                      xmlns:rdkit='http://www.rdkit.org/xml'
                      xmlns:xlink='http://www.w3.org/1999/xlink'
                  xml:space='preserve'
width='256px' height='256px' viewBox='0 0 256 256'>
<!-- END OF HEADER -->
<rect style='opacity:1.0;fill:#FFFFFF;stroke:none' width='256.0' height='256.0' x='0.0' y='0.0'> </rect>
<path class='bond-0 atom-0 atom-1' d='M 64.3,181.9 L 112.7,133.1' style='fill:none;fill-rule:evenodd;stroke:#000000;stroke-width:2.0px;stroke-linecap:butt;stroke-linejoin:miter;stroke-opacity:1' />
<path class='bond-1 atom-1 atom-2' d='M 147.3,107.7 L 180.9,73.8' style='fill:none;fill-rule:evenodd;stroke:#000000;stroke-width:2.0px;stroke-linecap:butt;stroke-linejoin:miter;stroke-opacity:1' />
<path class='bond-1 atom-1 atom-2' d='M 137.7,98.2 L 171.3,64.3' style='fill:none;fill-rule:evenodd;stroke:#000000;stroke-width:2.0px;stroke-linecap:butt;stroke-linejoin:miter;stroke-opacity:1' />
<path class='bond-2 atom-1 atom-3' d='M 112.7,103.1 L 78.6,69.4' style='fill:none;fill-rule:evenodd;stroke:#000000;stroke-width:2.0px;stroke-linecap:butt;stroke-linejoin:miter;stroke-opacity:1' />
<path class='bond-3 atom-1 atom-4' d='M 142.6,132.8 L 176.7,166.5' style='fill:none;fill-rule:evenodd;stroke:#000000;stroke-width:2.0px;stroke-linecap:butt;stroke-linejoin:miter;stroke-opacity:1' />
<path class='atom-1' d='M96.2661,213.649 C98.6437,211.249 95.4438,208.079 93.0662,210.478 C90.6886,212.878 87.4887,209.708 89.8663,207.308 C92.2439,204.908 89.044,201.738 86.6664,204.138 C84.2888,206.538 81.0889,203.368 83.4665,200.968 C85.8442,198.568 82.6443,195.398 80.2666,197.798 C77.889,200.198 74.6891,197.028 77.0668,194.628 C79.4444,192.228 76.2445,189.058 73.8669,191.457 C71.4893,193.857 68.2894,190.687 70.667,188.287 C73.0446,185.887 69.8447,182.717 67.4671,185.117 C65.0895,187.517 61.8896,184.347 64.2672,181.947 C66.6448,179.547 63.445,176.377 61.0673,178.777 C58.6897,181.177 55.4898,178.007 57.8674,175.607 C60.2451,173.207 57.0452,170.037 54.6676,172.437 C52.2899,174.836 49.0901,171.666 51.4677,169.266 C53.8453,166.866 50.6454,163.696 48.2678,166.096 C45.8902,168.496 42.6903,165.326 45.0679,162.926 C47.4455,160.526 44.2456,157.356 41.868,159.756 C39.4904,162.156 36.2905,158.986 38.6681,156.586 C41.0458,154.186 37.8459,151.016 35.4682,153.416 C33.0906,155.816 29.8907,152.645 32.2684,150.245' style='fill:none;stroke:#7F7F7F;stroke-width:2.0px;stroke-linecap:butt;stroke-linejoin:miter;stroke-opacity:1' />
<text x='115.7' y='137.9' class='atom-1' style='font-size:40px;font-style:normal;font-weight:normal;fill-opacity:1;stroke:none;font-family:sans-serif;text-anchor:start;fill:#000000' >P</text>
<text x='179.1' y='74.0' class='atom-2' style='font-size:40px;font-style:normal;font-weight:normal;fill-opacity:1;stroke:none;font-family:sans-serif;text-anchor:start;fill:#000000' >O</text>
<text x='26.1' y='74.5' class='atom-3' style='font-size:40px;font-style:normal;font-weight:normal;fill-opacity:1;stroke:none;font-family:sans-serif;text-anchor:start;fill:#000000' >H</text>
<text x='51.7' y='74.5' class='atom-3' style='font-size:40px;font-style:normal;font-weight:normal;fill-opacity:1;stroke:none;font-family:sans-serif;text-anchor:start;fill:#000000' >O</text>
<text x='179.7' y='201.4' class='atom-4' style='font-size:40px;font-style:normal;font-weight:normal;fill-opacity:1;stroke:none;font-family:sans-serif;text-anchor:start;fill:#000000' >O</text>
<text x='207.3' y='201.4' class='atom-4' style='font-size:40px;font-style:normal;font-weight:normal;fill-opacity:1;stroke:none;font-family:sans-serif;text-anchor:start;fill:#000000' >H</text>
</svg>

<svg height="256" viewBox="0 0 256 256" width="256" xmlns="http://www.w3.org/2000/svg"><path d="m0 0h256v256h-256z" fill="#fff"/><g fill="none" stroke-width="2"><path d="m64.3 181.9 48.4-48.8" stroke="#000"/><path d="m147.3 107.7 33.6-33.9" stroke="#000"/><path d="m137.7 98.2 33.6-33.9" stroke="#000"/><path d="m112.7 103.1-34.1-33.7" stroke="#000"/><path d="m142.6 132.8 34.1 33.7" stroke="#000"/><path d="m96.266 213.649c2.378-2.4-.822-5.57-3.2-3.171-2.377 2.4-5.577-.77-3.2-3.17 2.378-2.4-.822-5.57-3.2-3.17-2.377 2.4-5.577-.77-3.199-3.17 2.377-2.4-.823-5.57-3.2-3.17-2.378 2.4-5.578-.77-3.2-3.17 2.377-2.4-.822-5.57-3.2-3.171-2.378 2.4-5.578-.77-3.2-3.17s-.822-5.57-3.2-3.17c-2.377 2.4-5.577-.77-3.2-3.17 2.378-2.4-.822-5.57-3.2-3.17-2.377 2.4-5.577-.77-3.2-3.17 2.378-2.4-.822-5.57-3.199-3.17-2.378 2.399-5.578-.771-3.2-3.171 2.377-2.4-.823-5.57-3.2-3.17-2.378 2.4-5.578-.77-3.2-3.17s-.822-5.57-3.2-3.17-5.577-.77-3.2-3.17c2.378-2.4-.822-5.57-3.2-3.17-2.377 2.4-5.577-.771-3.2-3.171" stroke="#7f7f7f"/></g><text font-family="sans-serif" font-size="40" x="115.7" y="137.9">P</text><text font-family="sans-serif" font-size="40" x="179.1" y="74">O</text><text font-family="sans-serif" font-size="40" x="26.1" y="74.5">H</text><text font-family="sans-serif" font-size="40" x="51.7" y="74.5">O</text><text font-family="sans-serif" font-size="40" x="179.7" y="201.4">O</text><text font-family="sans-serif" font-size="40" x="207.3" y="201.4">H</text></svg>
